images/logo/resources-n1.svg

<svg width="89" height="36" viewBox="0 0 89 36" fill="none" xmlns="http://www.w3.org/2000/svg">
<path d="M81.7309 28.6498V0.0703125H67.8594V7.04093L74.0632 6.97122L74.1329 28.5801H67.8594V35.5508H88.0045V28.6498H81.7309Z" fill="#BDBDBD"/>
<path d="M53.8442 6.27344H46.9433V13.9411H39.9727V20.842H46.9433V28.5794H53.8442V20.842H60.8845V13.9411H53.8442V6.27344Z" fill="#BDBDBD"/>
<path d="M22.4761 21.6089H21.0123L7.7681 0H0.867188V35.6896H7.7681V14.0109H9.16222L22.4761 35.6896H29.377V0H22.4761V21.6089Z" fill="#BDBDBD"/>
</svg>

<svg width="89" height="36" fill="none" xmlns="http://www.w3.org/2000/svg"><path d="M81.73 28.65V.07H67.86v6.97l6.203-.069.07 21.61h-6.274v6.97h20.145V28.65h-6.273ZM53.844 6.273h-6.9v7.668h-6.971v6.901h6.97v7.737h6.901v-7.737h7.04v-6.9h-7.04V6.272ZM22.476 21.609h-1.464L7.768 0h-6.9v35.69h6.9V14.01h1.394l13.314 21.68h6.901V0h-6.9v21.609Z" fill="#BDBDBD"/></svg>
